;Generated with Cura_SteamEngine 15.05
; Default start code
G28 ; Home extruder
G1 Z15 F100
M107 ; Turn off fan
G90 ; Absolute positioning
M82 ; Extruder in absolute mode
M190 S50
; Activate all used extruder
M104 T0 S210
G92 E0 ; Reset extruder position
; Wait for all used extruders to reach temperature
M109 T0 S210
;Layer count: 13
;LAYER:0
M107
;LAYER:1
M106 S40
G1 F2400 E-4.00000
G0 F9000 X11.789 Y35.741 Z0.300
;TYPE:WALL-INNER
G1 F2400 E0.00000
G1 F2220 X12.230 Y35.621 E0.01520
G1 X107.483 Y35.600 E3.18333
G1 X107.766 Y35.621 E3.19277
G1 X108.008 Y35.672 E3.20099
G1 X108.242 Y35.754 E3.20924
G1 X108.468 Y35.867 E3.21764
G1 X108.667 Y36.004 E3.22568
G1 X108.853 Y36.170 E3.23397
G1 X109.018 Y36.362 E3.24239
G1 X109.152 Y36.567 E3.25054
G1 X109.258 Y36.789 E3.25872
G1 X109.378 Y37.230 E3.27392
G1 X109.400 Y82.480 E4.77894
G1 X109.378 Y82.766 E4.78848
G1 X109.328 Y83.005 E4.79660
G1 X109.245 Y83.242 E4.80496
G1 X109.132 Y83.468 E4.81336
G1 X108.994 Y83.668 E4.82144
G1 X108.828 Y83.854 E4.82973
G1 X108.640 Y84.015 E4.83797
G1 X108.429 Y84.154 E4.84637
G1 X108.211 Y84.258 E4.85440
G1 X107.769 Y84.378 E4.86964
G1 X12.520 Y84.400 E8.03763
G1 X12.233 Y84.378 E8.04720
G1 X11.991 Y84.327 E8.05543
G1 X11.760 Y84.246 E8.06357
G1 X11.531 Y84.131 E8.07210
G1 X11.329 Y83.992 E8.08025
G1 X11.145 Y83.828 E8.08845
G1 X10.984 Y83.640 E8.09668
G1 X10.845 Y83.429 E8.10509
G1 X10.740 Y83.209 E8.11319
G1 X10.621 Y82.769 E8.12835
G1 X10.600 Y37.517 E9.63344
G1 X10.621 Y37.233 E9.64291
G1 X10.672 Y36.990 E9.65117
G1 X10.753 Y36.760 E9.65928
G1 X10.868 Y36.531 E9.66780
G1 X11.007 Y36.329 E9.67596
G1 X11.171 Y36.145 E9.68416
G1 X11.362 Y35.981 E9.69253
G1 X11.567 Y35.847 E9.70068
G1 X11.789 Y35.741 E9.70886
G0 F9000 X12.447 Y37.164
G1 F2220 X12.174 Y37.393 E9.72071
G1 X11.947 Y37.649 E9.73209
G1 X11.744 Y37.979 E9.74498
G1 X11.607 Y38.311 E9.75692
G1 X11.527 Y38.639 E9.76815
G1 X11.497 Y39.004 E9.78033
G1 X11.533 Y39.388 E9.79316
G1 X11.622 Y39.734 E9.80504
G1 X11.757 Y40.049 E9.81644
G1 X11.968 Y40.374 E9.82933
G1 X12.212 Y40.642 E9.84138
G1 X12.491 Y40.864 E9.85324
G1 X12.786 Y41.035 E9.86458
G1 X13.146 Y41.167 E9.87734
G1 X13.478 Y41.235 E9.88861
G1 X13.843 Y41.250 E9.90076
G1 X14.224 Y41.200 E9.91354
G1 X14.553 Y41.103 E9.92495
G1 X14.899 Y40.934 E9.93775
G1 X15.194 Y40.726 E9.94976
G1 X15.450 Y40.472 E9.96175
G1 X15.656 Y40.199 E9.97313
G1 X15.827 Y39.859 E9.98579
G1 X15.936 Y39.539 E9.99703
G1 X15.995 Y39.177 E10.00923
G1 X15.990 Y38.793 E10.02200
G1 X15.929 Y38.437 E10.03402
G1 X15.819 Y38.113 E10.04540
G1 X15.637 Y37.774 E10.05819
G1 X15.416 Y37.486 E10.07027
G1 X15.153 Y37.240 E10.08225
G1 X14.872 Y37.047 E10.09358
G1 X14.525 Y36.888 E10.10628
G1 X14.201 Y36.793 E10.11751
G1 X13.836 Y36.749 E10.12974
G1 X13.452 Y36.769 E10.14253
G1 X13.097 Y36.846 E10.15461
G1 X12.759 Y36.979 E10.16669
G1 X12.447 Y37.164 E10.17875
G0 F9000 X11.528 Y38.639
G0 X11.969 Y40.374
G0 X13.479 Y41.233
G0 X16.306 Y46.376
G1 F2220 X15.904 Y46.593 E10.19395
G1 X15.529 Y46.854 E10.20914
G1 X15.186 Y47.156 E10.22434
G1 X14.880 Y47.496 E10.23956
G1 X14.616 Y47.867 E10.25470
G1 X14.396 Y48.264 E10.26980
G1 X14.230 Y48.658 E10.28402
G1 X14.097 Y49.126 E10.30020
G1 X14.025 Y49.543 E10.31428
G1 X13.998 Y50.002 E10.32957
G1 X14.030 Y50.488 E10.34577
G1 X14.103 Y50.908 E10.35995
G1 X14.245 Y51.376 E10.37621
G1 X14.426 Y51.797 E10.39146
G1 X14.655 Y52.193 E10.40667
G1 X14.926 Y52.559 E10.42182
G1 X15.238 Y52.893 E10.43702
G1 X15.586 Y53.188 E10.45219
G1 X15.963 Y53.441 E10.46729
G1 X16.340 Y53.640 E10.48147
G1 X16.798 Y53.813 E10.49776
G1 X17.237 Y53.925 E10.51282
G1 X17.658 Y53.986 E10.52697
G1 X18.117 Y53.999 E10.54225
G1 X18.603 Y53.953 E10.55848
G1 X19.050 Y53.859 E10.57368
G1 X19.484 Y53.714 E10.58889
G1 X19.895 Y53.521 E10.60400
G1 X20.260 Y53.301 E10.61817
G1 X20.646 Y52.998 E10.63449
G1 X20.970 Y52.676 E10.64969
G1 X21.255 Y52.321 E10.66483
G1 X21.499 Y51.935 E10.68002
G1 X21.696 Y51.523 E10.69520
G1 X21.846 Y51.094 E10.71032
G1 X21.942 Y50.681 E10.72442
G1 X21.994 Y50.226 E10.73965
G1 X21.991 Y49.736 E10.75595
G1 X21.934 Y49.282 E10.77117
G1 X21.827 Y48.838 E10.78636
G1 X21.669 Y48.410 E10.80154
G1 X21.465 Y48.002 E10.81671
G1 X21.213 Y47.619 E10.83196
G1 X20.923 Y47.272 E10.84700
G1 X20.619 Y46.975 E10.86113
G1 X20.228 Y46.678 E10.87746
G1 X19.833 Y46.446 E10.89270
G1 X19.417 Y46.260 E10.90786
G1 X18.984 Y46.123 E10.92296
G1 X18.568 Y46.039 E10.93708
G1 X18.112 Y46.000 E10.95230
G1 X17.623 Y46.018 E10.96857
G1 X17.172 Y46.086 E10.98374
G1 X16.760 Y46.195 E10.99792
G1 X16.306 Y46.376 E11.01417
G0 F9000 X18.568 Y46.040
G0 X20.618 Y46.975
G0 X31.427 Y49.136
G1 F2220 X31.349 Y49.564 E11.02864
G1 X31.323 Y50.000 E11.04317
G1 X31.349 Y50.435 E11.05767
G1 X31.427 Y50.863 E11.07214
G1 X31.553 Y51.279 E11.08659
G1 X31.729 Y51.678 E11.10110
G1 X31.950 Y52.053 E11.11557
G1 X32.215 Y52.399 E11.13007
G1 X32.518 Y52.712 E11.14456
G1 X32.857 Y52.986 E11.15906
G1 X33.225 Y53.218 E11.17353
G1 X33.618 Y53.406 E11.18802
G1 X34.030 Y53.546 E11.20249
G1 X34.456 Y53.636 E11.21697
G1 X34.891 Y53.674 E11.23149
G1 X35.326 Y53.661 E11.24597
G1 X35.756 Y53.597 E11.26043
G1 X36.177 Y53.482 E11.27494
G1 X36.581 Y53.319 E11.28943
G1 X36.962 Y53.108 E11.30392
G1 X37.316 Y52.853 E11.31843
G1 X37.637 Y52.560 E11.33288
G1 X37.922 Y52.230 E11.34739
G1 X38.164 Y51.869 E11.36184
G1 X38.364 Y51.481 E11.37636
G1 X38.515 Y51.073 E11.39083
G1 X38.618 Y50.649 E11.40534
G1 X38.669 Y50.218 E11.41978
G1 X38.669 Y49.781 E11.43431
G1 X38.618 Y49.350 E11.44875
G1 X38.515 Y48.926 E11.46326
G1 X38.364 Y48.518 E11.47773
G1 X38.164 Y48.130 E11.49225
G1 X37.922 Y47.769 E11.50670
G1 X37.637 Y47.439 E11.52121
G1 X37.316 Y47.146 E11.53566
G1 X36.962 Y46.891 E11.55017
G1 X36.581 Y46.680 E11.56466
G1 X36.177 Y46.517 E11.57915
G1 X35.756 Y46.402 E11.59366
G1 X35.326 Y46.338 E11.60812
G1 X34.891 Y46.325 E11.62260
G1 X34.456 Y46.363 E11.63712
G1 X34.030 Y46.453 E11.65160
G1 X33.618 Y46.593 E11.66607
G1 X33.225 Y46.781 E11.68056
G1 X32.857 Y47.013 E11.69503
G1 X32.518 Y47.287 E11.70953
G1 X32.215 Y47.600 E11.72402
G1 X31.950 Y47.946 E11.73852
G1 X31.729 Y48.321 E11.75299
G1 X31.553 Y48.720 E11.76750
G1 X31.427 Y49.136 E11.78195
G0 F9000 X33.618 Y43.406
G1 F2220 X34.030 Y43.546 E11.79643
G1 X34.456 Y43.636 E11.81091
G1 X34.891 Y43.674 E11.82543
G1 X35.326 Y43.661 E11.83991
G1 X35.756 Y43.597 E11.85437
G1 X36.177 Y43.482 E11.86888
G1 X36.581 Y43.319 E11.88337
G1 X36.962 Y43.108 E11.89786
G1 X37.316 Y42.853 E11.91237
G1 X37.637 Y42.560 E11.92682
G1 X37.922 Y42.230 E11.94133
G1 X38.164 Y41.869 E11.95578
G1 X38.364 Y41.481 E11.97030
G1 X38.515 Y41.073 E11.98477
G1 X38.618 Y40.649 E11.99928
G1 X38.669 Y40.218 E12.01372
G1 X38.669 Y39.781 E12.02825
G1 X38.618 Y39.350 E12.04269
G1 X38.515 Y38.926 E12.05720
G1 X38.364 Y38.518 E12.07167
G1 X38.164 Y38.130 E12.08619
G1 X37.922 Y37.769 E12.10064
G1 X37.637 Y37.439 E12.11514
G1 X37.316 Y37.146 E12.12960
G1 X36.962 Y36.891 E12.14411
G1 X36.581 Y36.680 E12.15860
G1 X36.177 Y36.517 E12.17309
G1 X35.756 Y36.402 E12.18760
G1 X35.326 Y36.338 E12.20206
G1 X34.891 Y36.325 E12.21653
G1 X34.456 Y36.363 E12.23106
G1 X34.030 Y36.453 E12.24554
G1 X33.618 Y36.593 E12.26001
G1 X33.225 Y36.781 E12.27450
G1 X32.857 Y37.013 E12.28897
G1 X32.518 Y37.287 E12.30347
G1 X32.215 Y37.600 E12.31796
G1 X31.950 Y37.946 E12.33245
G1 X31.729 Y38.321 E12.34693
G1 X31.553 Y38.720 E12.36144
G1 X31.427 Y39.136 E12.37589
G1 X31.349 Y39.564 E12.39036
G1 X31.323 Y40.000 E12.40489
G1 X31.349 Y40.435 E12.41938
G1 X31.427 Y40.863 E12.43385
G1 X31.553 Y41.279 E12.44831
G1 X31.729 Y41.678 E12.46281
G1 X31.950 Y42.053 E12.47729
G1 X32.215 Y42.399 E12.49179
G1 X32.518 Y42.712 E12.50628
G1 X32.857 Y42.986 E12.52077
G1 X33.225 Y43.218 E12.53524
G1 X33.618 Y43.406 E12.54973
G0 F9000 X35.755 Y43.596
G0 X48.093 Y40.863
G1 F2220 X48.221 Y41.279 E12.56421
G1 X48.395 Y41.678 E12.57869
G1 X48.618 Y42.053 E12.59320
G1 X48.882 Y42.399 E12.60767
G1 X49.185 Y42.712 E12.62216
G1 X49.524 Y42.986 E12.63666
G1 X49.892 Y43.218 E12.65113
G1 X50.284 Y43.406 E12.66559
G1 X50.698 Y43.546 E12.68013
G1 X51.123 Y43.636 E12.69457
G1 X51.558 Y43.674 E12.70910
G1 X51.992 Y43.661 E12.72354
G1 X52.423 Y43.597 E12.73803
G1 X52.844 Y43.482 E12.75255
G1 X53.248 Y43.319 E12.76704
G1 X53.629 Y43.108 E12.78152
G1 X53.983 Y42.853 E12.79603
G1 X54.305 Y42.559 E12.81054
G1 X54.588 Y42.230 E12.82497
G1 X54.831 Y41.869 E12.83944
G1 X55.030 Y41.481 E12.85395
G1 X55.182 Y41.074 E12.86840
G1 X55.285 Y40.649 E12.88294
G1 X55.336 Y40.218 E12.89738
G1 X55.336 Y39.781 E12.91191
G1 X55.285 Y39.350 E12.92635
G1 X55.182 Y38.925 E12.94089
G1 X55.030 Y38.518 E12.95534
G1 X54.831 Y38.130 E12.96984
G1 X54.588 Y37.769 E12.98432
G1 X54.305 Y37.440 E12.99875
G1 X53.983 Y37.146 E13.01325
G1 X53.629 Y36.891 E13.02777
G1 X53.248 Y36.680 E13.04225
G1 X52.844 Y36.517 E13.05674
G1 X52.423 Y36.402 E13.07126
G1 X51.992 Y36.338 E13.08575
G1 X51.558 Y36.325 E13.10019
G1 X51.123 Y36.363 E13.11471
G1 X50.698 Y36.453 E13.12916
G1 X50.284 Y36.593 E13.14370
G1 X49.892 Y36.781 E13.15816
G1 X49.524 Y37.013 E13.17263
G1 X49.185 Y37.287 E13.18712
G1 X48.882 Y37.600 E13.20161
G1 X48.618 Y37.946 E13.21609
G1 X48.395 Y38.321 E13.23060
G1 X48.221 Y38.720 E13.24508
G1 X48.093 Y39.136 E13.25955
G1 X48.016 Y39.565 E13.27405
G1 X47.990 Y40.000 E13.28854
G1 X48.016 Y40.434 E13.30301
G1 X48.093 Y40.863 E13.31750
G0 F9000 X50.284 Y46.593
G1 F2220 X49.892 Y46.781 E13.33196
G1 X49.524 Y47.013 E13.34643
G1 X49.185 Y47.287 E13.36093
G1 X48.882 Y47.600 E13.37542
G1 X48.618 Y47.946 E13.38989
G1 X48.395 Y48.321 E13.40440
G1 X48.221 Y48.720 E13.41888
G1 X48.093 Y49.136 E13.43336
G1 X48.016 Y49.565 E13.44786
G1 X47.990 Y50.000 E13.46235
G1 X48.016 Y50.434 E13.47681
G1 X48.093 Y50.863 E13.49131
G1 X48.221 Y51.279 E13.50578
G1 X48.395 Y51.678 E13.52026
G1 X48.618 Y52.053 E13.53477
G1 X48.882 Y52.399 E13.54925
G1 X49.185 Y52.712 E13.56374
G1 X49.524 Y52.986 E13.57823
G1 X49.892 Y53.218 E13.59270
G1 X50.284 Y53.406 E13.60716
G1 X50.698 Y53.546 E13.62170
G1 X51.123 Y53.636 E13.63615
G1 X51.558 Y53.674 E13.65067
G1 X51.992 Y53.661 E13.66511
G1 X52.423 Y53.597 E13.67960
G1 X52.844 Y53.482 E13.69412
G1 X53.248 Y53.319 E13.70861
G1 X53.629 Y53.108 E13.72310
G1 X53.983 Y52.853 E13.73761
G1 X54.305 Y52.559 E13.75211
G1 X54.588 Y52.230 E13.76654
G1 X54.831 Y51.869 E13.78102
G1 X55.030 Y51.481 E13.79552
G1 X55.182 Y51.074 E13.80997
G1 X55.285 Y50.649 E13.82451
G1 X55.336 Y50.218 E13.83895
G1 X55.336 Y49.781 E13.85348
G1 X55.285 Y49.350 E13.86792
G1 X55.182 Y48.925 E13.88246
G1 X55.030 Y48.518 E13.89691
G1 X54.831 Y48.130 E13.91142
G1 X54.588 Y47.769 E13.92589
G1 X54.305 Y47.440 E13.94032
G1 X53.983 Y47.146 E13.95483
G1 X53.629 Y46.891 E13.96934
G1 X53.248 Y46.680 E13.98382
G1 X52.844 Y46.517 E13.99831
G1 X52.423 Y46.402 E14.01283
G1 X51.992 Y46.338 E14.02732
G1 X51.558 Y46.325 E14.04176
G1 X51.123 Y46.363 E14.05629
G1 X50.698 Y46.453 E14.07073
G1 X50.284 Y46.593 E14.08527
G0 F9000 X52.422 Y46.403
G0 X64.760 Y49.136
G1 F2220 X64.682 Y49.565 E14.09977
G1 X64.657 Y50.000 E14.11426
G1 X64.682 Y50.434 E14.12872
G1 X64.760 Y50.863 E14.14323
G1 X64.886 Y51.279 E14.15768
G1 X65.062 Y51.678 E14.17219
G1 X65.283 Y52.053 E14.18667
G1 X65.548 Y52.399 E14.20116
G1 X65.851 Y52.712 E14.21565
G1 X66.190 Y52.986 E14.23015
G1 X66.558 Y53.218 E14.24462
G1 X66.951 Y53.406 E14.25911
G1 X67.363 Y53.546 E14.27358
G1 X67.791 Y53.636 E14.28813
G1 X68.225 Y53.674 E14.30262
G1 X68.659 Y53.661 E14.31706
G1 X69.089 Y53.597 E14.33152
G1 X69.511 Y53.482 E14.34606
G1 X69.914 Y53.318 E14.36054
G1 X70.295 Y53.108 E14.37501
G1 X70.649 Y52.853 E14.38952
G1 X70.970 Y52.560 E14.40397
G1 X71.254 Y52.230 E14.41845
G1 X71.498 Y51.869 E14.43294
G1 X71.697 Y51.481 E14.44745
G1 X71.849 Y51.073 E14.46193
G1 X71.951 Y50.649 E14.47643
G1 X72.002 Y50.218 E14.49087
G1 X72.002 Y49.781 E14.50540
G1 X71.951 Y49.350 E14.51984
G1 X71.849 Y48.926 E14.53434
G1 X71.697 Y48.518 E14.54882
G1 X71.498 Y48.130 E14.56333
G1 X71.254 Y47.769 E14.57782
G1 X70.970 Y47.439 E14.59230
G1 X70.649 Y47.146 E14.60676
G1 X70.295 Y46.891 E14.62127
G1 X69.914 Y46.681 E14.63574
G1 X69.511 Y46.517 E14.65021
G1 X69.089 Y46.402 E14.66476
G1 X68.659 Y46.338 E14.67921
G1 X68.225 Y46.325 E14.69366
G1 X67.791 Y46.363 E14.70815
G1 X67.363 Y46.453 E14.72269
G1 X66.951 Y46.593 E14.73717
G1 X66.558 Y46.781 E14.75166
G1 X66.190 Y47.013 E14.76612
G1 X65.851 Y47.287 E14.78062
G1 X65.548 Y47.600 E14.79511
G1 X65.283 Y47.946 E14.80961
G1 X65.062 Y48.321 E14.82408
G1 X64.886 Y48.720 E14.83859
G1 X64.760 Y49.136 E14.85305
G0 F9000 X66.951 Y43.406
G1 F2220 X67.363 Y43.546 E14.86752
G1 X67.791 Y43.636 E14.88206
G1 X68.225 Y43.674 E14.89656
G1 X68.659 Y43.661 E14.91100
G1 X69.089 Y43.597 E14.92546
G1 X69.511 Y43.482 E14.94000
G1 X69.914 Y43.318 E14.95447
G1 X70.295 Y43.108 E14.96894
G1 X70.649 Y42.853 E14.98345
G1 X70.970 Y42.560 E14.99791
G1 X71.254 Y42.230 E15.01239
G1 X71.498 Y41.869 E15.02688
G1 X71.697 Y41.481 E15.04139
G1 X71.849 Y41.073 E15.05587
G1 X71.951 Y40.649 E15.07037
G1 X72.002 Y40.218 E15.08481
G1 X72.002 Y39.781 E15.09934
G1 X71.951 Y39.350 E15.11378
G1 X71.849 Y38.926 E15.12828
G1 X71.697 Y38.518 E15.14276
G1 X71.498 Y38.130 E15.15727
G1 X71.254 Y37.769 E15.17176
G1 X70.970 Y37.439 E15.18624
G1 X70.649 Y37.146 E15.20070
G1 X70.295 Y36.891 E15.21521
G1 X69.914 Y36.681 E15.22968
G1 X69.511 Y36.517 E15.24415
G1 X69.089 Y36.402 E15.25869
G1 X68.659 Y36.338 E15.27315
G1 X68.225 Y36.325 E15.28760
G1 X67.791 Y36.363 E15.30209
G1 X67.363 Y36.453 E15.31663
G1 X66.951 Y36.593 E15.33110
G1 X66.558 Y36.781 E15.34559
G1 X66.190 Y37.013 E15.36006
G1 X65.851 Y37.287 E15.37456
G1 X65.548 Y37.600 E15.38905
G1 X65.283 Y37.946 E15.40355
G1 X65.062 Y38.321 E15.41802
G1 X64.886 Y38.720 E15.43253
G1 X64.760 Y39.136 E15.44698
G1 X64.682 Y39.565 E15.46149
G1 X64.657 Y40.000 E15.47598
G1 X64.682 Y40.434 E15.49044
G1 X64.760 Y40.863 E15.50494
G1 X64.886 Y41.279 E15.51940
G1 X65.062 Y41.678 E15.53390
G1 X65.283 Y42.053 E15.54838
G1 X65.548 Y42.399 E15.56287
G1 X65.851 Y42.712 E15.57736
G1 X66.190 Y42.986 E15.59186
G1 X66.558 Y43.218 E15.60633
G1 X66.951 Y43.406 E15.62082
G0 F9000 X69.088 Y43.596
G0 X81.427 Y40.863
G1 F2220 X81.553 Y41.279 E15.63528
G1 X81.729 Y41.678 E15.64978
G1 X81.950 Y42.053 E15.66426
G1 X82.215 Y42.399 E15.67876
G1 X82.518 Y42.712 E15.69324
G1 X82.857 Y42.986 E15.70774
G1 X83.225 Y43.218 E15.72221
G1 X83.618 Y43.406 E15.73670
G1 X84.030 Y43.546 E15.75117
G1 X84.456 Y43.636 E15.76566
G1 X84.891 Y43.674 E15.78018
G1 X85.326 Y43.661 E15.79465
G1 X85.756 Y43.597 E15.80911
G1 X86.177 Y43.482 E15.82363
G1 X86.581 Y43.319 E15.83812
G1 X86.962 Y43.108 E15.85260
G1 X87.316 Y42.853 E15.86711
G1 X87.637 Y42.560 E15.88157
G1 X87.922 Y42.230 E15.89607
G1 X88.164 Y41.869 E15.91053
G1 X88.364 Y41.481 E15.92505
G1 X88.515 Y41.073 E15.93952
G1 X88.618 Y40.649 E15.95403
G1 X88.669 Y40.218 E15.96846
G1 X88.669 Y39.781 E15.98300
G1 X88.618 Y39.350 E15.99743
G1 X88.515 Y38.926 E16.01194
G1 X88.364 Y38.518 E16.02641
G1 X88.164 Y38.130 E16.04093
G1 X87.922 Y37.769 E16.05539
G1 X87.637 Y37.439 E16.06989
G1 X87.316 Y37.146 E16.08435
G1 X86.962 Y36.891 E16.09886
G1 X86.581 Y36.680 E16.11334
G1 X86.177 Y36.517 E16.12783
G1 X85.756 Y36.402 E16.14235
G1 X85.326 Y36.338 E16.15681
G1 X84.891 Y36.325 E16.17128
G1 X84.456 Y36.363 E16.18580
G1 X84.030 Y36.453 E16.20029
G1 X83.618 Y36.593 E16.21476
G1 X83.225 Y36.781 E16.22925
G1 X82.857 Y37.013 E16.24372
G1 X82.518 Y37.287 E16.25822
G1 X82.215 Y37.600 E16.27271
G1 X81.950 Y37.946 E16.28720
G1 X81.729 Y38.321 E16.30168
G1 X81.553 Y38.720 E16.31618
G1 X81.427 Y39.136 E16.33064
G1 X81.349 Y39.565 E16.34514
G1 X81.324 Y40.000 E16.35963
G1 X81.349 Y40.434 E16.37409
G1 X81.427 Y40.863 E16.38860
G0 F9000 X83.618 Y46.593
G1 F2220 X83.225 Y46.781 E16.40309
G1 X82.857 Y47.013 E16.41755
G1 X82.518 Y47.287 E16.43205
G1 X82.215 Y47.600 E16.44654
G1 X81.950 Y47.946 E16.46104
G1 X81.729 Y48.321 E16.47551
G1 X81.553 Y48.720 E16.49002
G1 X81.427 Y49.136 E16.50448
G1 X81.349 Y49.565 E16.51898
G1 X81.324 Y50.000 E16.53347
G1 X81.349 Y50.434 E16.54793
G1 X81.427 Y50.863 E16.56243
